X: 25146
T: Mairtin O'Connor's Flying Clog
R: reel
M: 4/4
K: Gmajor
G2 (3GGG d>GB>d|e>Gc>e d>BA>B|G2 (3GGG B>GA>B|c>E (3EEE G>E (3DEF|
G2 G>B d>G (3Bcd|e>Gc>e d2 (3cBA|c>E (3EEE G>E (3EEE|D>FA>d B>d:|
G>d (3ddd e>d (3ddd|e>dg>d e>gd>c|B>d (3ddd e>d g2|e>aa>g (3fed c>A|
(3Bcd G>B B>c (3ccA|(3EEE c>E D>GB>G|c>E (3EEE G>E (3EEE|D>FA>d B>d:|

